source/img/svg/icon-new.svg

<svg width="30" height="30" viewBox="0 0 30 30" fill="none" xmlns="http://www.w3.org/2000/svg">
<path d="M13.8724 6.51594C14.535 5.9981 15.465 5.9981 16.1276 6.51594C16.7329 6.98912 17.5047 7.1959 18.2655 7.08881C19.0982 6.9716 19.9037 7.43664 20.2185 8.21637C20.5062 8.92885 21.0712 9.49378 21.7836 9.78147C22.5634 10.0963 23.0284 10.9018 22.9112 11.7345C22.8041 12.4953 23.0109 13.2671 23.4841 13.8724C24.0019 14.535 24.0019 15.465 23.4841 16.1276C23.0109 16.7329 22.8041 17.5047 22.9112 18.2655C23.0284 19.0982 22.5634 19.9037 21.7836 20.2185C21.0712 20.5062 20.5062 21.0712 20.2185 21.7836C19.9037 22.5634 19.0982 23.0284 18.2655 22.9112C17.5047 22.8041 16.7329 23.0109 16.1276 23.4841C15.465 24.0019 14.535 24.0019 13.8724 23.4841C13.2671 23.0109 12.4953 22.8041 11.7345 22.9112C10.9018 23.0284 10.0963 22.5634 9.78147 21.7836C9.49378 21.0712 8.92885 20.5062 8.21637 20.2185C7.43664 19.9037 6.9716 19.0982 7.08881 18.2655C7.1959 17.5047 6.98912 16.7329 6.51594 16.1276C5.9981 15.465 5.9981 14.535 6.51594 13.8724C6.98912 13.2671 7.1959 12.4953 7.08881 11.7345C6.9716 10.9018 7.43664 10.0963 8.21637 9.78147C8.92885 9.49378 9.49378 8.92885 9.78147 8.21637C10.0963 7.43664 10.9018 6.9716 11.7345 7.08881C12.4953 7.1959 13.2671 6.98912 13.8724 6.51594Z" stroke="#EB5757"/>
<path d="M14.5705 18.796C14.3976 18.9689 14.2162 18.9801 14.0264 18.8297C13.862 18.7046 13.6968 18.5788 13.5309 18.4522C13.3552 18.3187 13.1991 18.1837 13.0628 18.0474C13.0262 18.0108 12.9658 17.9462 12.8814 17.8534C12.7985 17.7592 12.7387 17.6938 12.7022 17.6573C12.6924 17.6474 12.6692 17.6214 12.6326 17.5793C12.5947 17.5357 12.563 17.5012 12.5377 17.4759C12.421 17.3593 12.3325 17.3311 12.272 17.3916C12.1427 17.5209 12.0914 17.7241 12.1181 18.001C12.1448 18.2751 12.239 18.5633 12.4007 18.8655C12.4442 18.9148 12.4998 18.9829 12.5672 19.0701C12.6221 19.1418 12.6797 19.2079 12.7402 19.2683C12.7795 19.3077 12.8435 19.3632 12.932 19.4349C13.0206 19.5038 13.0846 19.5579 13.1239 19.5973C13.2041 19.6774 13.242 19.7716 13.2378 19.8798C13.2364 19.9881 13.1935 20.0844 13.1092 20.1687C13.0248 20.2531 12.9285 20.2959 12.8203 20.2973C12.7134 20.3002 12.62 20.2615 12.5398 20.1814C12.5005 20.142 12.4372 20.0872 12.3501 20.0169C12.2615 19.9452 12.1975 19.8897 12.1582 19.8503C12.0232 19.7153 11.8454 19.5178 11.6247 19.2578C11.404 18.9977 11.2261 18.8002 11.0912 18.6652C11.049 18.6231 10.9836 18.5633 10.8951 18.486C10.8065 18.4059 10.7418 18.3454 10.7011 18.3046C10.6223 18.2259 10.5858 18.1331 10.5914 18.0263C10.597 17.9166 10.6413 17.8203 10.7243 17.7374C10.9084 17.5533 11.1172 17.5652 11.3505 17.7733L11.3758 17.7943C11.3744 17.3824 11.4876 17.0626 11.7153 16.8349C11.981 16.5692 12.2755 16.4968 12.5989 16.6177C12.8154 16.6992 13.0719 16.8883 13.3685 17.1849L13.5183 17.3347C13.5815 17.4007 13.6265 17.4471 13.6532 17.4738C13.7629 17.5835 13.9189 17.71 14.1213 17.8534C14.3252 17.9954 14.4812 18.1205 14.5895 18.2287C14.6682 18.3075 14.7054 18.4009 14.7012 18.5092C14.697 18.6174 14.6534 18.713 14.5705 18.796Z" fill="#EB5757"/>
<path d="M16.1794 17.0816C15.8434 17.4176 15.4885 17.6123 15.1145 17.6657C14.7012 17.7248 14.3336 17.5933 14.0117 17.2714C13.656 16.9157 13.4487 16.5214 13.3896 16.0884C13.325 15.6076 13.4691 15.1908 13.8219 14.838C14.0665 14.5934 14.309 14.4296 14.5494 14.3467C14.8657 14.2384 15.1335 14.2939 15.3528 14.5132C15.5074 14.6679 15.558 14.8914 15.5046 15.1838C15.4807 15.3174 15.4027 15.5556 15.2706 15.8986L14.8741 16.9235C15.0147 16.9291 15.1511 16.9024 15.2832 16.8433C15.4154 16.7843 15.5433 16.6929 15.667 16.5692C15.8554 16.3808 15.9763 16.1826 16.0297 15.9746C16.0775 15.789 16.1365 15.6611 16.2068 15.5908C16.353 15.4446 16.4971 15.4425 16.6391 15.5845C16.7994 15.7447 16.8127 15.9928 16.6792 16.3288C16.5667 16.61 16.4001 16.8609 16.1794 17.0816ZM14.3322 15.3483C14.2015 15.479 14.1333 15.6344 14.1277 15.8143C14.122 15.9942 14.1783 16.1995 14.2964 16.43C14.3863 16.2023 14.4763 15.976 14.5663 15.751C14.6703 15.4755 14.742 15.245 14.7814 15.0594C14.6337 15.1002 14.484 15.1965 14.3322 15.3483Z" fill="#EB5757"/>
<path d="M18.2754 11.0761C18.6789 11.7748 19.031 12.4235 19.3319 13.0224C19.4162 13.1911 19.4774 13.39 19.5153 13.6192C19.5406 13.7794 19.4964 13.9151 19.3825 14.0261C19.2025 14.2005 18.8926 14.1688 18.4526 13.9312C18.2853 13.8399 17.9992 13.6438 17.5943 13.3429C17.6267 13.4343 17.6499 13.4941 17.6639 13.5222C17.7651 13.7696 17.9289 14.147 18.1552 14.6545C18.1932 14.7347 18.2087 14.8134 18.2016 14.8907C18.2368 15.0439 18.1981 15.181 18.0856 15.3019C18.0224 15.3708 17.8938 15.3813 17.6998 15.3335C17.5001 15.2885 17.2801 15.1936 17.0397 15.0488C16.8218 14.9181 16.3748 14.606 15.6986 14.1126C15.5524 14.0058 15.4435 13.9165 15.3718 13.8448C15.2945 13.7675 15.2593 13.6747 15.2663 13.5664C15.2734 13.4554 15.3177 13.3591 15.3992 13.2776C15.551 13.1257 15.7197 13.1075 15.9053 13.2227C16.0023 13.2832 16.1147 13.3647 16.2427 13.4673C16.4254 13.6164 16.5337 13.7035 16.5674 13.7288C16.6953 13.8202 16.9027 13.9713 17.1895 14.1822C17.0081 13.7928 16.7726 13.3183 16.4831 12.7588C16.3579 12.5184 16.3748 12.3188 16.5337 12.16C16.6897 12.0039 16.8942 12.0032 17.1473 12.1579C17.3258 12.2661 17.5493 12.4151 17.8178 12.6049C18.2087 12.8804 18.442 13.0435 18.5179 13.0941C18.487 13.0379 18.17 12.5002 17.5669 11.481C17.4769 11.3291 17.5044 11.1808 17.6492 11.036C17.7293 10.9559 17.8256 10.9116 17.938 10.9032C18.0519 10.8934 18.1475 10.9271 18.2248 11.0044C18.2389 11.0185 18.2557 11.0424 18.2754 11.0761Z" fill="#EB5757"/>
</svg>

<svg width="30" height="30" fill="none" xmlns="http://www.w3.org/2000/svg"><path d="M13.872 6.516a1.831 1.831 0 012.256 0 2.83 2.83 0 002.137.573 1.83 1.83 0 011.953 1.127 2.831 2.831 0 001.566 1.565 1.83 1.83 0 011.127 1.954c-.107.76.1 1.532.573 2.137a1.831 1.831 0 010 2.256 2.83 2.83 0 00-.573 2.137 1.83 1.83 0 01-1.127 1.953 2.832 2.832 0 00-1.566 1.566 1.83 1.83 0 01-1.953 1.127 2.83 2.83 0 00-2.137.573 1.831 1.831 0 01-2.256 0 2.83 2.83 0 00-2.137-.573 1.83 1.83 0 01-1.954-1.127 2.831 2.831 0 00-1.565-1.566 1.83 1.83 0 01-1.127-1.953 2.83 2.83 0 00-.573-2.137 1.831 1.831 0 010-2.256 2.83 2.83 0 00.573-2.137A1.831 1.831 0 018.216 9.78a2.831 2.831 0 001.565-1.565 1.831 1.831 0 011.954-1.127 2.83 2.83 0 002.137-.573z" stroke="#EB5757"/><path d="M14.57 18.796c-.172.173-.354.184-.544.034l-.495-.378a4.577 4.577 0 01-.65-.599 4.818 4.818 0 00-.179-.196 2.299 2.299 0 01-.07-.078 2.095 2.095 0 00-.094-.103c-.117-.117-.206-.145-.266-.084-.13.129-.18.332-.154.609.027.274.121.562.283.864.043.05.099.118.166.205.055.072.113.138.173.198.04.04.104.095.192.167.089.069.153.123.192.162.08.08.118.175.114.283a.406.406 0 01-.129.289.406.406 0 01-.289.128.37.37 0 01-.28-.116 2.563 2.563 0 00-.19-.164 2.636 2.636 0 01-.192-.167 10.41 10.41 0 01-.533-.592c-.221-.26-.399-.458-.534-.593a4.363 4.363 0 00-.196-.179 5.687 5.687 0 01-.194-.181.352.352 0 01-.11-.279.429.429 0 01.133-.289c.184-.184.393-.172.627.036l.025.021c-.002-.412.112-.731.34-.96.265-.265.56-.337.883-.216.216.081.473.27.77.567l.15.15.134.139c.11.11.266.236.468.38.204.141.36.267.468.375a.362.362 0 01.112.28.419.419 0 01-.13.287zm1.61-1.714c-.337.336-.691.53-1.066.584-.413.059-.78-.073-1.102-.395-.356-.355-.563-.75-.622-1.183-.065-.48.08-.897.432-1.25.245-.245.487-.408.727-.491.317-.109.585-.053.804.166.154.155.205.378.152.67-.024.134-.102.373-.234.716l-.397 1.025a.902.902 0 00.41-.08c.131-.06.26-.151.383-.275.188-.188.31-.386.363-.594.047-.186.107-.314.177-.384.146-.146.29-.148.432-.006.16.16.174.408.04.744a2.22 2.22 0 01-.5.753zm-1.848-1.734a.668.668 0 00-.204.466c-.006.18.05.386.168.616l.27-.679c.104-.275.176-.506.215-.692a1.06 1.06 0 00-.449.29zm3.943-4.272c.404.699.756 1.348 1.057 1.946.084.17.145.368.183.597a.441.441 0 01-.133.407c-.18.175-.49.143-.93-.095-.167-.091-.453-.287-.858-.588.033.091.056.151.07.18.101.247.265.624.491 1.132a.45.45 0 01.047.236.431.431 0 01-.116.41c-.064.07-.192.08-.386.033a2.28 2.28 0 01-.66-.285c-.218-.13-.665-.443-1.341-.936a2.909 2.909 0 01-.327-.268.346.346 0 01-.106-.279.436.436 0 01.133-.288c.152-.152.32-.17.506-.055.097.06.21.142.338.244.182.15.29.236.324.262.128.091.336.242.622.453-.18-.39-.416-.864-.706-1.423-.125-.24-.108-.44.05-.599.157-.156.361-.157.614-.002.179.108.402.257.67.447l.7.49c-.03-.057-.347-.595-.95-1.614-.09-.152-.063-.3.082-.445a.443.443 0 01.289-.133c.114-.01.21.024.287.101.014.014.03.038.05.072z" fill="#EB5757"/></svg>
